X:4931
T:Fahey's, Paddy
M:C
L:1/8
K:D Minor
D2A,D FEFG|Ad^ce d2de|f2df edcA|dcAG FDCE|!
D2A,D FEFG|Ad^ce d2de|f2df edcA|dcAG FDD2:|!
Add2 ^fded|c2Gc EcGc|Add2 ^fded|cBcd edd2|!
a2^ga ABcA|dcAG FDCE|D2A,E FEFG|Ad^ce d4:|!
